assets/svg/1f4d0.svg

<svg xmlns="http://www.w3.org/2000/svg" viewBox="0 0 64 64" enable-background="new 0 0 64 64"><path fill="#ffce31" d="m.687 61.83c-1.194 1.194-.789 2.17.899 2.17h59.34c1.688 0 3.07-1.381 3.07-3.069v-59.35c0-1.688-.979-2.093-2.171-.899l-61.14 61.14m49.15-15.07c0 1.688-1.381 3.069-3.069 3.069h-10.96c-1.688 0-2.092-.977-.899-2.17l12.756-12.756c1.194-1.192 2.172-.789 2.172.899v10.958"/><g fill="#89664c"><path d="m2.373 61.33h1.01v2.666h-1.01z"/><path d="m5.347 61.33h1v2.666h-1z"/><path d="m8.323 61.33h1v2.666h-1z"/><path d="m11.296 58.988h1.01v5.01h-1.01z"/><path d="m14.438 61.33h1.01v2.666h-1.01z"/><path d="m17.413 61.33h1.01v2.666h-1.01z"/><path d="m20.388 61.33h1.01v2.666h-1.01z"/><path d="m23.363 58.988h1v5.01h-1z"/><path d="m26.504 61.33h1v2.666h-1z"/><path d="m29.479 61.33h1.01v2.666h-1.01z"/><path d="m32.453 61.33h1.01v2.666h-1.01z"/><path d="m35.43 58.988h1.01v5.01h-1.01z"/><path d="m38.57 61.33h1.01v2.666h-1.01z"/><path d="m41.545 61.33h1.01v2.666h-1.01z"/><path d="m44.521 61.33h1.01v2.666h-1.01z"/><path d="m47.5 58.988h1v5.01h-1z"/><path d="m50.637 61.33h1.01v2.666h-1.01z"/><path d="m53.611 61.33h1.01v2.666h-1.01z"/><path d="m56.59 61.33h1.01v2.666h-1.01z"/><path d="m59.56 58.988h1.01v5.01h-1.01z"/></g></svg>

<svg xmlns="http://www.w3.org/2000/svg" width="64" height="64" viewBox="0 0 64 64"><path fill="#FFCE31" d="M.687 61.83C-.507 63.024-.102 64 1.586 64h59.345a3.079 3.079 0 0 0 3.07-3.069V1.585c0-1.688-.979-2.093-2.171-.899L.687 61.83zm49.145-15.069a3.078 3.078 0 0 1-3.069 3.069h-10.96c-1.688 0-2.092-.977-.899-2.17L47.66 34.904c1.194-1.192 2.172-.789 2.172.899v10.958z"/><g fill="#89664C"><path d="M2.373 61.334h1.006V64H2.373zM5.347 61.334h1.005V64H5.347zM8.323 61.334h1.005V64H8.323zM11.296 58.988h1.006V64h-1.006zM14.438 61.334h1.006V64h-1.006zM17.413 61.334h1.006V64h-1.006zM20.388 61.334h1.006V64h-1.006zM23.363 58.988h1.005V64h-1.005zM26.504 61.334h1.005V64h-1.005zM29.479 61.334h1.006V64h-1.006zM32.453 61.334h1.007V64h-1.007zM35.43 58.988h1.005V64H35.43zM38.57 61.334h1.006V64H38.57zM41.545 61.334h1.007V64h-1.007zM44.521 61.334h1.005V64h-1.005zM47.496 58.988h1.005V64h-1.005zM50.637 61.334h1.006V64h-1.006zM53.611 61.334h1.006V64h-1.006zM56.586 61.334h1.005V64h-1.005zM59.562 58.988h1.006V64h-1.006z"/></g></svg>
